X: 92
T: Pollonesse #92
M: 3/4
L: 1/16
R: Pollonesse
K: A
Q: 110
e2ae dcBA a4|e2ae dcBA f4|e2ce d2Bd c2Ac| cBAG A2E2 C2A,2|
e2ae dcBA a4|e2ae dcBA f4|e2ce d2Bd dcBA|cBAG A4 A,4:|
[DB]2[DB]2 [DB]2[DB]2 [DB]2[DB]2|[Dc]2[Dc]2 [Dc]2[Dc]2 [Dc]2[Dc]2|d2Bd c2Ac B2AF| e4 edcB c2A2|
N: Inte klar...

